logos/science-co.svg

<svg width="1317" height="283" fill="none" xmlns="http://www.w3.org/2000/svg"><g clip-path="url(#a)" fill="#000"><path d="M673.2 92.64h-40.38V247.7h40.38V92.64zM672.04 39.21c-4.84-4.667-11.33-7-19.47-7-7.94 0-14.427 2.333-19.46 7-4.84 4.453-7.26 10.26-7.26 17.42a22.802 22.802 0 0 0 7.26 17.13c5.04 4.44 11.527 6.66 19.46 6.66 8.14 0 14.63-2.227 19.47-6.68a22.391 22.391 0 0 0 7.55-17.13c0-7.147-2.517-12.947-7.55-17.4zM448.83 146.94c-9.487-8.907-23.433-15.2-41.84-18.88l-35.73-7.26a72.819 72.819 0 0 1-13.95-4.06 30.317 30.317 0 0 1-10.46-7.55 17.87 17.87 0 0 1-3.77-11.62 22.69 22.69 0 0 1 4.1-13.35 27.705 27.705 0 0 1 11.33-9.59c5.04-2.507 11.143-3.763 18.31-3.77a39.721 39.721 0 0 1 19.46 4.64 32.743 32.743 0 0 1 13.37 12.78 38.616 38.616 0 0 1 5.77 19.14h44.76c-.78-14.52-4.947-27.007-12.5-37.46a75.201 75.201 0 0 0-29.63-24.68c-12.2-5.813-26.143-8.72-41.83-8.72-15.107 0-28.57 2.71-40.39 8.13a67.936 67.936 0 0 0-27.65 22.73 57.51 57.51 0 0 0-9.87 33.11 55.742 55.742 0 0 0 4.35 22.65 50.257 50.257 0 0 0 11.92 16.84 66.74 66.74 0 0 0 17.72 11.61 88.527 88.527 0 0 0 22.08 6.68l34.28 6.68c8.913 1.74 15.787 4.643 20.62 8.71 4.853 3.873 7.277 9.1 7.27 15.68a21.998 21.998 0 0 1-4.94 14.23 30.691 30.691 0 0 1-13.66 9.29 55.563 55.563 0 0 1-19.75 3.2c-13.56 0-24.02-3.39-31.38-10.17-7.16-6.773-11.033-15.967-11.62-27.58h-44.71c1.16 14.713 5.423 27.49 12.79 38.33 7.367 10.84 17.437 19.26 30.21 25.26 12.98 5.813 28.183 8.717 45.61 8.71 17.627 0 32.627-2.903 45-8.71 12.593-5.813 22.277-13.75 29.05-23.81 6.78-10.26 10.17-21.973 10.17-35.14.02-15.327-4.81-27.343-14.49-36.05zM526.42 130.97a30.993 30.993 0 0 1 18.3-5.52c9.1 0 16.557 3 22.37 9 6 6 9.487 14.13 10.46 24.39h42.42c-1.547-13.94-5.713-26.04-12.5-36.3a68.813 68.813 0 0 0-26.43-24.12 75.8 75.8 0 0 0-36.32-8.71c-14.52 0-27.497 3.487-38.93 10.46a74.371 74.371 0 0 0-27 28.74c-6.387 12-9.58 25.747-9.58 41.24 0 15.68 3.193 29.617 9.58 41.81a70.944 70.944 0 0 0 26.39 28.46c11.433 6.767 24.603 10.153 39.51 10.16 13.953 0 26.253-2.807 36.9-8.42a69.998 69.998 0 0 0 26.17-23.74c6.78-10.447 10.85-22.74 12.21-36.88h-42.42c-1.16 10.453-4.647 18.68-10.46 24.68-5.62 5.813-13.077 8.717-22.37 8.71a32.261 32.261 0 0 1-18.3-5.22c-5.04-3.68-9.01-8.907-11.91-15.68-2.713-6.78-4.07-14.717-4.07-23.81 0-9.333 1.357-17.27 4.07-23.81a36.885 36.885 0 0 1 11.91-15.44zM821.28 115.87A66.994 66.994 0 0 0 796 96.7a76.997 76.997 0 0 0-33.12-7c-14.913 0-28.18 3.487-39.8 10.46a72.088 72.088 0 0 0-27.31 28.16c-6.58 12-9.87 25.747-9.87 41.24 0 16.06 3.193 30.19 9.58 42.39a69.628 69.628 0 0 0 27 28.46c11.82 6.58 25.487 9.87 41 9.87 18.98 0 34.863-4.84 47.65-14.52 12.787-9.68 21.407-23.23 25.86-40.65h-40.1a33.39 33.39 0 0 1-12.2 17.71c-5.813 4.26-13.173 6.39-22.08 6.39-7.74 0-14.323-1.937-19.75-5.81-5.427-3.873-9.493-9.487-12.2-16.84a66.806 66.806 0 0 1-3.59-16.55h110.19c1.927-12.58 1.44-24.293-1.46-35.14a75.864 75.864 0 0 0-14.52-29zm-93.67 38.62a60.774 60.774 0 0 1 3-12.2c2.9-7.553 6.967-13.263 12.2-17.13 5.233-3.867 11.623-5.803 19.17-5.81 9.493 0 17.143 3.193 22.95 9.58 6 6.2 9.197 14.72 9.59 25.56h-66.91zM936.06 89.73c-10.26 0-19.363 2.227-27.31 6.68a67.284 67.284 0 0 0-20.33 18.3V92.64h-37.19V247.7h40.38v-84.5c0-8.52 1.26-15.49 3.78-20.91a28.73 28.73 0 0 1 10.79-12.49 28 28 0 0 1 15.07-4.38c9.1 0 15.877 3.097 20.33 9.29 4.667 6 7 14.81 7 26.43v86.53h40.1V147.52c0-18.593-4.843-32.823-14.53-42.69-9.7-10.06-22.397-15.093-38.09-15.1zM1057.43 130.97a31 31 0 0 1 18.3-5.52c9.11 0 16.57 3 22.37 9 6 6 9.49 14.13 10.46 24.39h42.42c-1.55-13.94-5.72-26.04-12.5-36.3a68.803 68.803 0 0 0-26.43-24.12 75.807 75.807 0 0 0-36.32-8.71c-14.52 0-27.5 3.487-38.93 10.46a74.42 74.42 0 0 0-27 28.74c-6.39 12-9.58 25.747-9.58 41.24 0 15.68 3.19 29.617 9.58 41.81a70.94 70.94 0 0 0 26.38 28.46c11.43 6.767 24.6 10.153 39.51 10.16 13.95 0 26.25-2.807 36.9-8.42a70.01 70.01 0 0 0 26.18-23.74c6.78-10.447 10.85-22.74 12.21-36.88h-42.42c-1.16 10.453-4.65 18.68-10.46 24.68-5.61 5.813-13.07 8.717-22.37 8.71-6.49.14-12.86-1.68-18.3-5.22-5.04-3.68-9.01-8.907-11.91-15.68-2.71-6.78-4.06-14.717-4.07-23.81 0-9.333 1.36-17.27 4.07-23.81a36.885 36.885 0 0 1 11.91-15.44zM1313.74 144.9a76.048 76.048 0 0 0-14.53-29 66.992 66.992 0 0 0-25.27-19.17 76.994 76.994 0 0 0-33.12-7c-14.92 0-28.19 3.487-39.8 10.46a72.021 72.021 0 0 0-27.31 28.16c-6.59 12-9.88 25.747-9.88 41.24 0 16.06 3.2 30.19 9.59 42.39a69.572 69.572 0 0 0 27 28.46c11.81 6.58 25.47 9.87 41 9.87 18.98 0 34.86-4.84 47.64-14.52 12.78-9.68 21.4-23.23 25.86-40.65h-40.09a33.439 33.439 0 0 1-12.2 17.71c-5.81 4.26-13.17 6.39-22.08 6.39-7.75 0-14.33-1.937-19.76-5.81-5.43-3.873-9.49-9.487-12.2-16.84a66.99 66.99 0 0 1-3.58-16.55h110.17a84.822 84.822 0 0 0-1.44-35.14zm-108.2 9.59a62.44 62.44 0 0 1 3-12.2c2.9-7.553 6.97-13.263 12.2-17.13 5.23-3.867 11.63-5.803 19.18-5.81 9.49 0 17.16 3.193 23 9.58 6 6.2 9.19 14.72 9.58 25.56h-66.96zM202.6 42.49c0-19.24-9.25-32-27.56-37.78C160.24 0 140.52 0 119.59 0S79.01 0 64.18 4.71c-18.17 5.82-27.41 18.54-27.41 37.78 0 25.35 32.76 62.07 55.91 84.87l2.67 3.25L30 118.48v16l48.95 9.09L0 163.42v16.2l91.36-23-.25.27c-23.05 22.9-54.43 58.62-54.43 83.44 0 19.25 9.24 32 27.54 37.78 14.81 4.73 34.52 4.73 55.45 4.73s40.6 0 55.45-4.73c18.29-5.82 27.56-18.53 27.56-37.78 0-25-32-61.17-55.07-84l62.15 11.53v-16l-57.13-10.6 86.72-21.84v-16.2l-91.52 23c23.08-22.8 54.77-58.8 54.77-83.73zm-149.67 0c0-24 19.35-26.34 66.75-26.34s66.77 2.39 66.77 26.39c0 19-32.08 55.56-58.81 80.84h-.1V58.26l-15.73-4.72v69.81h-.18c-26.7-25.37-58.67-61.82-58.7-80.84v-.02zM186.4 240.42c0 24-19.33 26.39-66.77 26.39s-66.75-2.39-66.75-26.39c0-19 32-55.51 58.75-80.78h.18v62l15.73 4.72v-66.79h.1c26.73 25.26 58.76 61.76 58.76 80.85z"/></g><defs><clipPath id="a"><path fill="#fff" d="M0 0h1316.35v282.85H0z"/></clipPath></defs></svg>

<svg width="1317" height="283" viewBox="0 0 1317 283" fill="none" xmlns="http://www.w3.org/2000/svg">
    <g clip-path="url(#clip0_729_42)">
    <path d="M673.2 92.64H632.82V247.7H673.2V92.64Z" fill="black"></path>
    <path d="M672.04 39.21C667.2 34.5433 660.71 32.21 652.57 32.21C644.63 32.21 638.143 34.5433 633.11 39.21C628.27 43.6633 625.85 49.47 625.85 56.63C625.788 59.8352 626.402 63.0175 627.653 65.9692C628.904 68.9208 630.764 71.5755 633.11 73.76C638.15 78.2 644.637 80.42 652.57 80.42C660.71 80.42 667.2 78.1933 672.04 73.74C674.46 71.5982 676.387 68.9583 677.69 66.0015C678.993 63.0446 679.642 59.8408 679.59 56.61C679.59 49.4633 677.073 43.6633 672.04 39.21Z" fill="black"></path>
    <path d="M448.83 146.94C439.343 138.033 425.397 131.74 406.99 128.06L371.26 120.8C366.486 119.915 361.813 118.555 357.31 116.74C353.322 115.003 349.755 112.428 346.85 109.19C344.267 105.88 342.933 101.766 343.08 97.5701C343.009 92.7997 344.444 88.1284 347.18 84.2201C350.014 80.0525 353.931 76.7369 358.51 74.6301C363.55 72.1234 369.653 70.8667 376.82 70.8601C383.596 70.7211 390.295 72.3184 396.28 75.5001C401.872 78.3865 406.514 82.8236 409.65 88.2801C413.22 94.0429 415.21 100.644 415.42 107.42H460.18C459.4 92.9001 455.233 80.4134 447.68 69.9601C440.116 59.2978 429.904 50.7915 418.05 45.2801C405.85 39.4667 391.907 36.5601 376.22 36.5601C361.113 36.5601 347.65 39.2701 335.83 44.6901C324.747 49.659 315.199 57.5081 308.18 67.4201C301.574 77.1842 298.129 88.7426 298.31 100.53C298.165 108.301 299.647 116.016 302.66 123.18C305.426 129.557 309.485 135.292 314.58 140.02C319.831 144.809 325.813 148.728 332.3 151.63C339.337 154.81 346.76 157.056 354.38 158.31L388.66 164.99C397.573 166.73 404.447 169.633 409.28 173.7C414.133 177.573 416.557 182.8 416.55 189.38C416.629 194.557 414.88 199.596 411.61 203.61C407.991 207.897 403.267 211.11 397.95 212.9C391.615 215.153 384.923 216.237 378.2 216.1C364.64 216.1 354.18 212.71 346.82 205.93C339.66 199.157 335.787 189.963 335.2 178.35H290.49C291.65 193.063 295.913 205.84 303.28 216.68C310.647 227.52 320.717 235.94 333.49 241.94C346.47 247.753 361.673 250.657 379.1 250.65C396.727 250.65 411.727 247.747 424.1 241.94C436.693 236.127 446.377 228.19 453.15 218.13C459.93 207.87 463.32 196.157 463.32 182.99C463.34 167.663 458.51 155.647 448.83 146.94Z" fill="black"></path>
    <path d="M526.42 130.97C531.786 127.248 538.191 125.316 544.72 125.45C553.82 125.45 561.277 128.45 567.09 134.45C573.09 140.45 576.577 148.58 577.55 158.84H619.97C618.423 144.9 614.257 132.8 607.47 122.54C600.941 112.31 591.823 103.989 581.04 98.42C569.849 92.5327 557.364 89.5384 544.72 89.71C530.2 89.71 517.223 93.1966 505.79 100.17C494.368 107.146 485.04 117.075 478.79 128.91C472.403 140.91 469.21 154.657 469.21 170.15C469.21 185.83 472.403 199.767 478.79 211.96C484.77 223.715 493.909 233.571 505.18 240.42C516.613 247.187 529.783 250.573 544.69 250.58C558.643 250.58 570.943 247.773 581.59 242.16C592.2 236.615 601.21 228.441 607.76 218.42C614.54 207.973 618.61 195.68 619.97 181.54H577.55C576.39 191.993 572.903 200.22 567.09 206.22C561.47 212.033 554.013 214.937 544.72 214.93C538.234 215.07 531.856 213.25 526.42 209.71C521.38 206.03 517.41 200.803 514.51 194.03C511.797 187.25 510.44 179.313 510.44 170.22C510.44 160.887 511.797 152.95 514.51 146.41C517.023 140.288 521.137 134.955 526.42 130.97Z" fill="black"></path>
    <path d="M821.28 115.87C814.51 107.548 805.84 100.974 796 96.7C785.616 91.9387 774.303 89.5476 762.88 89.7C747.967 89.7 734.7 93.1866 723.08 100.16C711.549 106.842 702.095 116.589 695.77 128.32C689.19 140.32 685.9 154.067 685.9 169.56C685.9 185.62 689.093 199.75 695.48 211.95C701.566 223.828 710.938 233.707 722.48 240.41C734.3 246.99 747.967 250.28 763.48 250.28C782.46 250.28 798.343 245.44 811.13 235.76C823.917 226.08 832.537 212.53 836.99 195.11H796.89C794.888 202.197 790.598 208.424 784.69 212.82C778.877 217.08 771.517 219.21 762.61 219.21C754.87 219.21 748.287 217.273 742.86 213.4C737.433 209.527 733.367 203.913 730.66 196.56C728.766 191.218 727.56 185.657 727.07 180.01H837.26C839.187 167.43 838.7 155.717 835.8 144.87C833.107 134.27 828.154 124.377 821.28 115.87ZM727.61 154.49C728.186 150.331 729.191 146.242 730.61 142.29C733.51 134.737 737.577 129.027 742.81 125.16C748.043 121.293 754.433 119.357 761.98 119.35C771.473 119.35 779.123 122.543 784.93 128.93C790.93 135.13 794.127 143.65 794.52 154.49H727.61Z" fill="black"></path>
    <path d="M936.06 89.73C925.8 89.73 916.697 91.9566 908.75 96.41C900.792 101.054 893.872 107.282 888.42 114.71V92.64H851.23V247.7H891.61V163.2C891.61 154.68 892.87 147.71 895.39 142.29C897.688 137.161 901.439 132.818 906.18 129.8C910.683 126.933 915.912 125.414 921.25 125.42C930.35 125.42 937.127 128.517 941.58 134.71C946.247 140.71 948.58 149.52 948.58 161.14V247.67H988.68V147.52C988.68 128.927 983.837 114.697 974.15 104.83C964.45 94.77 951.753 89.7366 936.06 89.73Z" fill="black"></path>
    <path d="M1057.43 130.97C1062.8 127.248 1069.2 125.316 1075.73 125.45C1084.84 125.45 1092.3 128.45 1098.1 134.45C1104.1 140.45 1107.59 148.58 1108.56 158.84H1150.98C1149.43 144.9 1145.26 132.8 1138.48 122.54C1131.95 112.308 1122.83 103.986 1112.05 98.42C1100.86 92.5327 1088.37 89.5384 1075.73 89.71C1061.21 89.71 1048.23 93.1966 1036.8 100.17C1025.38 107.149 1016.05 117.077 1009.8 128.91C1003.41 140.91 1000.22 154.657 1000.22 170.15C1000.22 185.83 1003.41 199.767 1009.8 211.96C1015.78 223.714 1024.91 233.57 1036.18 240.42C1047.61 247.187 1060.78 250.573 1075.69 250.58C1089.64 250.58 1101.94 247.773 1112.59 242.16C1123.2 236.616 1132.22 228.442 1138.77 218.42C1145.55 207.973 1149.62 195.68 1150.98 181.54H1108.56C1107.4 191.993 1103.91 200.22 1098.1 206.22C1092.49 212.033 1085.03 214.937 1075.73 214.93C1069.24 215.07 1062.87 213.25 1057.43 209.71C1052.39 206.03 1048.42 200.803 1045.52 194.03C1042.81 187.25 1041.46 179.313 1041.45 170.22C1041.45 160.887 1042.81 152.95 1045.52 146.41C1048.03 140.288 1052.15 134.955 1057.43 130.97Z" fill="black"></path>
    <path d="M1313.74 144.9C1311.04 134.3 1306.08 124.408 1299.21 115.9C1292.44 107.58 1283.78 101.005 1273.94 96.73C1263.56 91.9687 1252.24 89.5776 1240.82 89.73C1225.9 89.73 1212.63 93.2167 1201.02 100.19C1189.49 106.868 1180.03 116.617 1173.71 128.35C1167.12 140.35 1163.83 154.097 1163.83 169.59C1163.83 185.65 1167.03 199.78 1173.42 211.98C1179.5 223.86 1188.88 233.74 1200.42 240.44C1212.23 247.02 1225.89 250.31 1241.42 250.31C1260.4 250.31 1276.28 245.47 1289.06 235.79C1301.84 226.11 1310.46 212.56 1314.92 195.14H1274.83C1272.82 202.226 1268.54 208.451 1262.63 212.85C1256.82 217.11 1249.46 219.24 1240.55 219.24C1232.8 219.24 1226.22 217.303 1220.79 213.43C1215.36 209.557 1211.3 203.943 1208.59 196.59C1206.7 191.247 1205.5 185.686 1205.01 180.04H1315.18C1317.16 168.355 1316.67 156.384 1313.74 144.9ZM1205.54 154.49C1206.13 150.332 1207.13 146.245 1208.54 142.29C1211.44 134.737 1215.51 129.027 1220.74 125.16C1225.97 121.293 1232.37 119.357 1239.92 119.35C1249.41 119.35 1257.08 122.543 1262.92 128.93C1268.92 135.13 1272.11 143.65 1272.5 154.49H1205.54Z" fill="black"></path>
    <path d="M202.6 42.49C202.6 23.25 193.35 10.49 175.04 4.71C160.24 0 140.52 0 119.59 0C98.66 0 79.01 0 64.18 4.71C46.01 10.53 36.77 23.25 36.77 42.49C36.77 67.84 69.53 104.56 92.68 127.36L95.35 130.61L30 118.48V134.48L78.95 143.57L0 163.42V179.62L91.36 156.62L91.11 156.89C68.06 179.79 36.68 215.51 36.68 240.33C36.68 259.58 45.92 272.33 64.22 278.11C79.03 282.84 98.74 282.84 119.67 282.84C140.6 282.84 160.27 282.84 175.12 278.11C193.41 272.29 202.68 259.58 202.68 240.33C202.68 215.33 170.68 179.16 147.61 156.33L209.76 167.86V151.86L152.63 141.26L239.35 119.42V103.22L147.83 126.22C170.91 103.42 202.6 67.42 202.6 42.49ZM52.93 42.49C52.93 18.49 72.28 16.15 119.68 16.15C167.08 16.15 186.45 18.54 186.45 42.54C186.45 61.54 154.37 98.1 127.64 123.38H127.54V58.26L111.81 53.54V123.35H111.63C84.93 97.98 52.96 61.53 52.93 42.51V42.49ZM186.4 240.42C186.4 264.42 167.07 266.81 119.63 266.81C72.19 266.81 52.88 264.42 52.88 240.42C52.88 221.42 84.88 184.91 111.63 159.64H111.81V221.64L127.54 226.36V159.57H127.64C154.37 184.83 186.4 221.33 186.4 240.42Z" fill="black"></path>
    </g>
    <defs>
    <clipPath id="clip0_729_42">
        <rect width="1316.35" height="282.85" fill="white"></rect>
    </clipPath>
    </defs>
</svg>
